static/icons/nginx.svg

<?xml version="1.0" encoding="UTF-8"?>
<!-- Uploaded to: SVG Repo, www.svgrepo.com, Generator: SVG Repo Mixer Tools -->
<svg width="800px" height="800px" viewBox="-17.5 0 291 291" version="1.1" xmlns="http://www.w3.org/2000/svg" xmlns:xlink="http://www.w3.org/1999/xlink" preserveAspectRatio="xMidYMid">
    <g>
				<path d="M2.05386819,218.186819 C3.37421203,220.534097 5.28137536,222.294556 7.6286533,223.6149 L120.591404,288.751862 L120.591404,288.751862 C125.28596,291.539255 131.00745,291.539255 135.555301,288.751862 L248.518052,223.6149 C253.212607,220.974212 256,215.986246 256,210.558166 L256,80.2842407 L256,80.2842407 C256,74.8561605 253.212607,69.8681948 248.518052,67.2275072 L135.555301,2.09054441 L135.555301,2.09054441 C130.860745,-0.696848138 125.139255,-0.696848138 120.591404,2.09054441 L120.591404,2.09054441 L7.6286533,67.2275072 C2.78739255,69.8681948 0,74.8561605 0,80.2842407 L0,80.2842407 L0,210.704871 C0,213.345559 0.586819484,215.839542 2.05386819,218.186819" fill="#009639">
</path>
				<path d="M91.8372493,195.154155 C91.8372493,203.222923 85.382235,209.677937 77.313467,209.677937 C69.2446991,209.677937 62.7896848,203.222923 62.7896848,195.154155 L62.7896848,195.154155 L62.7896848,95.5415473 C62.7896848,87.7661891 69.6848138,81.4578797 79.2206304,81.4578797 C86.1157593,81.4578797 94.1845272,84.2452722 99.025788,90.2601719 L103.426934,95.5415473 L164.162751,168.160458 L164.162751,95.834957 L164.162751,95.834957 C164.162751,87.7661891 170.617765,81.3111748 178.686533,81.3111748 C186.755301,81.3111748 193.210315,87.7661891 193.210315,95.834957 L193.210315,95.834957 L193.210315,195.447564 C193.210315,203.222923 186.315186,209.531232 176.77937,209.531232 C169.884241,209.531232 161.815473,206.74384 156.974212,200.72894 L91.8372493,122.975358 L91.8372493,195.154155 L91.8372493,195.154155 Z" fill="#FFFFFF">
</path>
    </g>
</svg>

<svg xmlns="http://www.w3.org/2000/svg" width="800" height="800" viewBox="-17.5 0 291 291" preserveAspectRatio="xMidYMid" xmlns:v="https://vecta.io/nano"><path d="M2.054 218.187c1.32 2.347 3.228 4.108 5.575 5.428l112.963 65.137h0c4.695 2.787 10.416 2.787 14.964 0l112.963-65.137c4.695-2.641 7.482-7.629 7.482-13.057V80.284h0c0-5.428-2.787-10.416-7.482-13.057L135.555 2.091h0c-4.695-2.787-10.416-2.787-14.964 0h0L7.629 67.228C2.787 69.868 0 74.856 0 80.284h0v130.421c0 2.641.587 5.135 2.054 7.482" fill="#009639"/><path d="M91.837 195.154a14.46 14.46 0 0 1-14.524 14.524 14.46 14.46 0 0 1-14.524-14.524h0V95.542c0-7.775 6.895-14.084 16.431-14.084 6.895 0 14.964 2.787 19.805 8.802l4.401 5.281 60.736 72.619V95.835h0a14.46 14.46 0 1 1 29.048 0h0v99.613c0 7.775-6.895 14.084-16.431 14.084-6.895 0-14.964-2.787-19.805-8.802l-65.137-77.754v72.179h0z" fill="#fff"/></svg>
